assets/Man with white cane/Medium-Light/Flat/man_with_white_cane_flat_medium-light.svg

<svg width="32" height="32" viewBox="0 0 32 32" fill="none" xmlns="http://www.w3.org/2000/svg">
<path d="M19.25 6.67712L19.57 8.64712L17.55 8.99712L17.24 6.98712L19.25 6.67712Z" fill="#E4B29A"/>
<path d="M19.345 19.1539L19.9 21.1672C20.1389 21.6831 20.7063 22.2264 21.3844 22.8756C21.416 22.9059 21.4479 22.9364 21.48 22.9672L25.6 27.0272L26.97 26.1572L22.95 20.7172C22.89 20.6372 22.84 20.5472 22.82 20.4472L21.91 16.6612L19.345 19.1539Z" fill="#636363"/>
<path d="M21.8 16L19.5279 15.4772L17.04 16L16.81 20.3771C16.8 21.0571 16.91 21.7771 17.13 22.7471L18.25 27.7571L18.9578 28.5171H19.87L19.6 21.4271L21.69 17.8871C21.93 17.4871 22 17.0171 21.89 16.5571L21.8 16Z" fill="#9B9B9B"/>
<path d="M27.6799 26.7071L26.7099 25.8071L25.1099 26.5271L24.4599 29.5771C24.4099 29.9171 24.8299 30.1171 25.0699 29.8671L27.6899 27.0571C27.7799 26.9571 27.7799 26.7971 27.6799 26.7071Z" fill="#533566"/>
<path d="M19.87 28.5172L18.3489 27.8036L18.26 27.7672L15.59 29.3672C15.3 29.5672 15.44 30.0072 15.79 30.0072H19.63C19.76 30.0072 19.87 29.8972 19.87 29.7572V28.4272L19.8665 28.4257L19.87 28.5172Z" fill="#533566"/>
<path d="M17.7844 9.56642C18.2929 9.61853 18.6628 10.073 18.6107 10.5815L18.6105 10.5834L18.6103 10.5857L18.6097 10.5912L18.608 10.6057C18.6067 10.6169 18.6049 10.6312 18.6025 10.6485C18.5978 10.6832 18.5909 10.7298 18.581 10.7875C18.5611 10.9028 18.5293 11.0626 18.4795 11.2591C18.38 11.652 18.208 12.1934 17.9148 12.8212C17.3555 14.0189 16.3582 15.5226 14.5989 16.8991L14.42 17.2471L14.3904 17.2991C14.3653 17.3434 14.3373 17.3928 14.307 17.4444V17.6406L14.0712 17.7969C14.0117 17.87 13.9504 17.9309 13.89 17.9671C13.66 18.1071 13.15 17.9671 12.81 17.7571C12.81 17.7571 12.39 17.4971 12.2 17.1271C12.05 16.8471 12.35 16.6571 12.35 16.6571C12.35 16.6571 12.35 16.5271 12.32 16.1871C12.3001 15.9195 12.5284 15.7771 12.7637 15.7016L13.0391 15.5273L13.226 15.6183C14.8782 14.3922 15.7641 13.0522 16.2377 12.038C16.4758 11.5282 16.6107 11.0985 16.6852 10.8044C16.7225 10.6575 16.7445 10.5449 16.7567 10.4738C16.7629 10.4382 16.7665 10.4131 16.7684 10.3993L16.7699 10.3873C16.8247 9.88165 17.2777 9.51449 17.7844 9.56642Z" fill="#EEBFAA"/>
<path d="M17.6899 13.4571C18.2999 12.2971 18.5999 11.2571 18.7399 10.4871C18.8599 9.85712 18.3899 9.26712 17.7399 9.23712H17.6999C17.2099 9.24712 16.7999 9.60712 16.7199 10.0871C16.6699 10.3771 16.5899 10.7271 16.4499 11.1271C16.2999 11.5971 16.0999 12.0571 15.8699 12.5071C15.8299 12.5871 15.8599 12.6771 15.9399 12.7171L17.4799 13.5271C17.5599 13.5671 17.6499 13.5371 17.6899 13.4571Z" fill="#0092E7"/>
<path d="M18.8399 8.34717C17.4299 8.34717 16.3399 9.56717 16.4899 10.9672L17.0399 16H21.7999L21.1999 10.4572C21.0599 9.26717 20.0499 8.34717 18.8399 8.34717Z" fill="#00A6ED"/>
<path d="M13.3896 18.1362L12.6173 17.5929L8.57835 23.078L8.64453 23.832L9.33937 23.6367L13.3896 18.1362Z" fill="#D3D3D3"/>
<path d="M4.83872 28.1574L6.26953 26.2187L6.97266 26.0664L7.07812 26.4062L7.03481 26.7664L5.59806 28.7176C5.62526 28.7991 5.64 28.8864 5.64 28.9772C5.64 29.43 5.27287 29.7972 4.82 29.7972C4.36713 29.7972 4 29.43 4 28.9772C4 28.5243 4.36713 28.1572 4.82 28.1572C4.82626 28.1572 4.8325 28.1572 4.83872 28.1574Z" fill="#D3D3D3"/>
<path d="M7.02002 26.7771L9.34002 23.6371L8.58002 23.0771L6.27002 26.2271L7.02002 26.7771Z" fill="#F92F60"/>
<path d="M14 15.2873C13.6913 15.2873 13.4124 15.4144 13.2127 15.6192C13.1336 15.6246 12.9406 15.6434 12.7542 15.7047C12.9955 15.265 13.4629 14.9669 14 14.9669C14.7843 14.9669 15.4202 15.6028 15.4202 16.3871C15.4202 17.1501 14.8185 17.7726 14.0637 17.8059C14.1517 17.6995 14.2359 17.5654 14.3076 17.4433C14.7652 17.3103 15.0998 16.8878 15.0998 16.3871C15.0998 15.7797 14.6074 15.2873 14 15.2873Z" fill="#635994"/>
<path d="M13.1901 17.1771C13.04 17.2482 12.8649 17.2132 12.7536 17.1017L12.1601 17.9072C12.0901 18.0072 12.1101 18.1372 12.2101 18.2072L12.9301 18.7372C13.0301 18.8072 13.1601 18.7872 13.2301 18.6872L14.6301 16.7872C14.6901 16.6872 14.6701 16.5572 14.5801 16.4872L13.8601 15.9572C13.7601 15.8872 13.6301 15.9072 13.5601 16.0072L13.2686 16.4027L13.3701 16.6671C13.4601 16.8571 13.3801 17.0871 13.1901 17.1771Z" fill="#635994"/>
<path d="M24.7672 16.09C24.8939 16.3603 24.9686 16.652 24.9872 16.95C24.9472 17.22 24.5072 17.53 24.1372 17.66C23.8571 17.7524 23.5595 17.7798 23.2672 17.74C22.9572 17.68 22.9972 17.32 22.9972 17.32C22.9972 17.32 22.8972 17.24 22.6172 17.04C22.2272 16.771 22.6172 16.159 22.7282 16C22.7152 15.971 22.6922 15.95 22.6812 15.92C22.1576 14.3548 21.2723 12.935 20.0972 11.776C19.7564 11.4402 19.3885 11.1332 18.9972 10.858C18.8592 10.758 18.7512 10.694 18.6802 10.651L18.5902 10.599L18.1992 9.35199C18.6172 8.55199 19.3762 8.86599 20.0532 9.33699C20.5295 9.67112 20.9777 10.0437 21.3932 10.451C22.9239 12.0558 24.0767 13.9825 24.7672 16.09Z" fill="#EEBFAA"/>
<path d="M21.89 10.7771C21.01 9.80715 20.13 9.16715 19.46 8.77715C18.91 8.44715 18.19 8.69715 17.94 9.28715L17.93 9.31715C17.78 9.77715 17.97 10.2871 18.39 10.5271C18.64 10.6771 18.95 10.8771 19.28 11.1371C19.67 11.4471 20.03 11.7871 20.37 12.1571C20.43 12.2171 20.53 12.2271 20.59 12.1671L21.88 11.0071C21.95 10.9471 21.95 10.8471 21.89 10.7771Z" fill="#3BC6F6"/>
<path d="M18.3601 3.06H17.3101C16.4301 3.06 15.7101 3.78 15.7101 4.66V5.11C15.7101 5.25 15.6701 5.39 15.6001 5.51C15.3801 5.87 15.2901 5.91 15.2801 6.09C15.2601 6.37 15.5301 6.44 15.6501 6.46C15.6901 6.47 15.7201 6.5 15.7201 6.53C15.7501 7.52 15.9301 8.24 17.1201 8.24C17.8401 8.24 18.9901 7.88 19.3201 7.02L19.6201 5.87L19.9701 4.67C19.9601 3.78 19.2401 3.06 18.3601 3.06Z" fill="#EEBFAA"/>
<path d="M16.11 5.57998C16.05 5.57998 16 5.51998 16 5.44998V5.43998C16 5.14998 16.25 4.97998 16.5 4.97998C16.74 4.97998 17 5.14998 17 5.43998V5.44998C17 5.51998 16.95 5.57998 16.89 5.57998H16.11Z" fill="white"/>
<path d="M16.02 5.57999C16.01 5.52999 16 5.48999 16 5.43999C16 5.22999 16.14 5.04999 16.3 5.04999C16.47 5.04999 16.6 5.21999 16.6 5.43999C16.6 5.48999 16.59 5.52999 16.58 5.57999H16.02Z" fill="#7D4533"/>
<path d="M16.1201 5.57997C16.1001 5.53997 16.0801 5.48997 16.0801 5.43997C16.0801 5.31997 16.1601 5.21997 16.2501 5.21997C16.3501 5.21997 16.4201 5.31997 16.4201 5.43997C16.4201 5.48997 16.4101 5.53997 16.3801 5.57997H16.1201Z" fill="black"/>
<path d="M16.2198 5.30355C16.2313 5.26091 16.2148 5.21931 16.1828 5.21064C16.1508 5.20197 16.1155 5.22951 16.1039 5.27216C16.0924 5.31481 16.1089 5.3564 16.1409 5.36507C16.1729 5.37374 16.2082 5.3462 16.2198 5.30355Z" fill="white"/>
<path d="M16.7128 6.51777C16.7692 6.53584 16.8003 6.59626 16.7823 6.65273C16.6832 6.96238 16.3505 7.11929 16.0473 7.02226C15.9909 7.00419 15.9597 6.94376 15.9778 6.8873C15.9959 6.83083 16.0563 6.7997 16.1128 6.81777C16.3095 6.88074 16.5169 6.77764 16.5778 6.5873C16.5959 6.53083 16.6563 6.4997 16.7128 6.51777Z" fill="#990838"/>
<path d="M16.9196 4.94398C16.8743 4.94423 16.8302 4.92907 16.7946 4.90098C16.6319 4.79515 16.4374 4.74952 16.2446 4.77198C16.2179 4.77576 16.1908 4.7741 16.1648 4.76712C16.1387 4.76013 16.1144 4.74796 16.0932 4.73134C16.072 4.71471 16.0544 4.69398 16.0414 4.67038C16.0284 4.64677 16.0203 4.62079 16.0176 4.59398C16.0138 4.56731 16.0155 4.54015 16.0225 4.51413C16.0295 4.48811 16.0416 4.46377 16.0583 4.44257C16.0749 4.42137 16.0956 4.40374 16.1192 4.39076C16.1428 4.37777 16.1688 4.36968 16.1956 4.36698C16.4954 4.33217 16.7976 4.4079 17.0456 4.57998C17.067 4.59623 17.085 4.61662 17.0983 4.63995C17.1117 4.66328 17.1202 4.68906 17.1234 4.71576C17.1266 4.74245 17.1243 4.76952 17.1168 4.79533C17.1093 4.82114 17.0966 4.84517 17.0796 4.86598C17.0608 4.89046 17.0365 4.91023 17.0088 4.92377C16.981 4.9373 16.9505 4.94422 16.9196 4.94398V4.94398Z" fill="#A56953"/>
<path d="M19.6499 2.36998C20.3099 2.51998 20.6599 3.10998 20.6699 3.73998C20.6699 3.73998 20.6799 4.23998 20.6099 4.67998C20.571 4.91368 20.5131 5.15686 20.4639 5.36336L20.4599 5.37998C20.3999 5.60998 20.2799 5.92998 20.1399 6.12998C20.0099 6.30998 19.7399 6.46998 19.4699 6.50998C19.2454 6.54325 18.8686 6.38973 18.7597 6.11273C18.9122 6.0019 19.0166 5.82232 19.0301 5.61999C19.0379 5.34075 18.8771 5.09158 18.6366 4.98452C18.5879 4.94718 18.5274 4.92373 18.4599 4.91998H18.3599C18.1599 4.91998 18.0099 4.73998 18.0199 4.53998C18.0399 4.28998 17.8499 4.06998 17.5999 4.05998L15.8699 3.97998H15.8299C15.4599 3.92998 15.1799 3.59998 15.1799 3.22998C15.1799 2.78998 15.5399 2.44998 15.9699 2.46998C16.0899 2.47998 16.2099 2.41998 16.2899 2.31998C16.4399 2.11998 16.6899 1.99998 16.9599 2.00998C17.0699 2.01998 17.1799 2.04998 17.2699 2.08998C17.5299 2.20998 17.8199 2.22998 18.0799 2.12998C18.1799 2.08998 18.2799 2.07998 18.3899 2.07998C18.5399 2.08998 18.6699 2.12998 18.7799 2.19998C18.9399 2.28998 19.1299 2.33998 19.3199 2.33998C19.4299 2.32998 19.5399 2.33998 19.6499 2.36998Z" fill="#FFF9BA"/>
</svg>

<svg xmlns="http://www.w3.org/2000/svg" width="32" height="32" fill="none"><path fill="#E4B29A" d="m19.25 6.677.32 1.97-2.02.35-.31-2.01 2.01-.31Z"/><path fill="#636363" d="m19.345 19.154.555 2.013c.239.516.806 1.06 1.484 1.709l.096.091 4.12 4.06 1.37-.87-4.02-5.44a.678.678 0 0 1-.13-.27l-.91-3.786-2.565 2.493Z"/><path fill="#9B9B9B" d="m21.8 16-2.272-.523L17.04 16l-.23 4.377c-.01.68.1 1.4.32 2.37l1.12 5.01.708.76h.912l-.27-7.09 2.09-3.54c.24-.4.31-.87.2-1.33L21.8 16Z"/><path fill="#533566" d="m27.68 26.707-.97-.9-1.6.72-.65 3.05c-.05.34.37.54.61.29l2.62-2.81c.09-.1.09-.26-.01-.35ZM19.87 28.517l-1.521-.713-.089-.037-2.67 1.6c-.29.2-.15.64.2.64h3.84c.13 0 .24-.11.24-.25v-1.33l-.004-.001.004.091Z"/><path fill="#EEBFAA" d="M17.784 9.566a.926.926 0 0 1 .827 1.015v.005l-.001.005-.002.015a6.276 6.276 0 0 1-.128.653c-.1.393-.272.934-.565 1.562-.56 1.198-1.557 2.702-3.316 4.078l-.179.348-.03.052-.083.145v.197l-.236.156a.75.75 0 0 1-.181.17c-.23.14-.74 0-1.08-.21 0 0-.42-.26-.61-.63-.15-.28.15-.47.15-.47s0-.13-.03-.47c-.02-.268.208-.41.444-.485l.275-.175.187.091c1.652-1.226 2.538-2.566 3.012-3.58.238-.51.373-.94.447-1.234a4.344 4.344 0 0 0 .083-.405l.002-.012a.926.926 0 0 1 1.014-.82Z"/><path fill="#0092E7" d="M17.69 13.457c.61-1.16.91-2.2 1.05-2.97.12-.63-.35-1.22-1-1.25h-.04c-.49.01-.9.37-.98.85-.05.29-.13.64-.27 1.04-.15.47-.35.93-.58 1.38-.04.08-.01.17.07.21l1.54.81c.08.04.17.01.21-.07Z"/><path fill="#00A6ED" d="M18.84 8.347c-1.41 0-2.5 1.22-2.35 2.62L17.04 16h4.76l-.6-5.543a2.388 2.388 0 0 0-2.36-2.11Z"/><path fill="#D3D3D3" d="m13.39 18.136-.773-.543-4.039 5.485.067.754.694-.195 4.05-5.5ZM4.839 28.157l1.43-1.938.704-.153.105.34-.043.36-1.437 1.952a.819.819 0 0 1-.778 1.08.82.82 0 1 1 .019-1.64Z"/><path fill="#F92F60" d="m7.02 26.777 2.32-3.14-.76-.56-2.31 3.15.75.55Z"/><path fill="#635994" d="M14 15.287c-.309 0-.588.127-.787.332-.08.006-.272.024-.459.086a1.42 1.42 0 1 1 1.31 2.1 2.86 2.86 0 0 0 .244-.362A1.1 1.1 0 0 0 14 15.287Z"/><path fill="#635994" d="M13.19 17.177a.386.386 0 0 1-.436-.075l-.594.805c-.07.1-.05.23.05.3l.72.53c.1.07.23.05.3-.05l1.4-1.9a.23.23 0 0 0-.05-.3l-.72-.53a.211.211 0 0 0-.3.05l-.291.396.101.264c.09.19.01.42-.18.51Z"/><path fill="#EEBFAA" d="M24.767 16.09c.127.27.202.562.22.86-.04.27-.48.58-.85.71-.28.092-.578.12-.87.08-.31-.06-.27-.42-.27-.42s-.1-.08-.38-.28c-.39-.269 0-.881.111-1.04-.013-.029-.036-.05-.047-.08a10.499 10.499 0 0 0-2.584-4.144 8.689 8.689 0 0 0-1.1-.918c-.138-.1-.246-.164-.317-.207l-.09-.052-.39-1.247c.417-.8 1.176-.486 1.853-.015.476.334.925.707 1.34 1.114a14.885 14.885 0 0 1 3.374 5.639Z"/><path fill="#3BC6F6" d="M21.89 10.777c-.88-.97-1.76-1.61-2.43-2-.55-.33-1.27-.08-1.52.51l-.01.03c-.15.46.04.97.46 1.21.25.15.56.35.89.61.39.31.75.65 1.09 1.02.06.06.16.07.22.01l1.29-1.16c.07-.06.07-.16.01-.23Z"/><path fill="#EEBFAA" d="M18.36 3.06h-1.05c-.88 0-1.6.72-1.6 1.6v.45c0 .14-.04.28-.11.4-.22.36-.31.4-.32.58-.02.28.25.35.37.37.04.01.07.04.07.07.03.99.21 1.71 1.4 1.71.72 0 1.87-.36 2.2-1.22l.3-1.15.35-1.2c-.01-.89-.73-1.61-1.61-1.61Z"/><path fill="#fff" d="M16.11 5.58c-.06 0-.11-.06-.11-.13v-.01c0-.29.25-.46.5-.46.24 0 .5.17.5.46v.01c0 .07-.05.13-.11.13h-.78Z"/><path fill="#7D4533" d="M16.02 5.58c-.01-.05-.02-.09-.02-.14 0-.21.14-.39.3-.39.17 0 .3.17.3.39 0 .05-.01.09-.02.14h-.56Z"/><path fill="#000" d="M16.12 5.58a.326.326 0 0 1-.04-.14c0-.12.08-.22.17-.22.1 0 .17.1.17.22 0 .05-.01.1-.04.14h-.26Z"/><path fill="#fff" d="M16.22 5.304c.011-.043-.005-.085-.037-.093-.032-.009-.067.019-.08.061-.01.043.006.084.038.093.032.009.067-.019.079-.061Z"/><path fill="#990838" d="M16.713 6.518a.107.107 0 0 1 .07.135.581.581 0 0 1-.736.37.107.107 0 0 1 .066-.205.366.366 0 0 0 .465-.23.107.107 0 0 1 .135-.07Z"/><path fill="#A56953" d="M16.92 4.944a.2.2 0 0 1-.125-.043.832.832 0 0 0-.55-.129.2.2 0 0 1-.227-.178.2.2 0 0 1 .178-.227c.3-.035.602.04.85.213a.2.2 0 0 1 .034.286.2.2 0 0 1-.16.078Z"/><path fill="#FFF9BA" d="M19.65 2.37c.66.15 1.01.74 1.02 1.37 0 0 .01.5-.06.94-.039.234-.097.477-.146.683l-.004.017c-.06.23-.18.55-.32.75-.13.18-.4.34-.67.38-.225.033-.601-.12-.71-.397a.666.666 0 0 0 .27-.493.674.674 0 0 0-.393-.635.317.317 0 0 0-.177-.065h-.1c-.2 0-.35-.18-.34-.38a.443.443 0 0 0-.42-.48l-1.73-.08h-.04a.763.763 0 0 1-.65-.75c0-.44.36-.78.79-.76.12.01.24-.05.32-.15.15-.2.4-.32.67-.31.11.01.22.04.31.08.26.12.55.14.81.04.1-.04.2-.05.31-.05.15.01.28.05.39.12.16.09.35.14.54.14.11-.01.22 0 .33.03Z"/></svg>
